X: 1
P: Pinafore 3
C: from
C: arr. T. Traub 6-14-2005
K: C
L: 1/8
M: 4/4
R: reel
|: c|"C"c2 c2 c2 c2|"G"B2 B2 B2 B2 |"D"A2 A2 AGAB|"G"A2 G2 G2 > G2|"C"c2 c2 c2 c2|"G"B2 B2 B2 B2 |"D"A2 A2 dedc|"G"B2 G2 G2 z2|
"C"e2 c2 c2 G2|c2 G2 G4|"F"A2 A2 AcBA|"C"G2 E2 E2 G2|"C"e2 c2 c2 G2|c2 G2 G4|"F"AcBA "G"BdcB|"C"c2 C2 C2 :|

